images/icon/woman.svg

<svg xmlns="http://www.w3.org/2000/svg" width="1024" height="1024" viewBox="240 -20 550 1064" class="colorable-icon" data-export-recolorable-svg="true" overflow="visible">
<g fill="none" stroke="black" stroke-width="45" stroke-linecap="round" stroke-linejoin="round">
<path d="M 637.221,206.842 C 640.677,212.507 641.61,226.168 641.153,248.762 C 638.731,270.007 635.264,285.761 630.61,299.662 C 624.581,312.417 616.95,324.568 606.794,336.542 C 595.572,347.373 583.527,356.353 571.264,363.49 C 557.738,369.442 543.388,373.828 525.863,376.936 C 510.508,377.746 494.667,376.587 480.206,373.754 C 465.634,369.086 454.121,364.018 441.734,356.937 C 429.286,347.819 417.5,336.912 408.988,327.07 C 401.226,315.615 394.379,302.241 389.827,290.273 C 386.071,275.753 383.806,261.861 382.455,246.022 L 382.611,205.84" data-line="nan" stroke-width="45.0"></path><path d="M 435.872,431.444 C 415.354,432.889 406.026,434.847 394.733,438.492 C 383.579,443.541 373.916,449.222 365.704,455.334 C 357.825,462.555 346.96,475.702 342.07,483.355 C 337.461,492.649 332.196,506.415 319.041,548.63" data-line="nan" stroke-width="45.0"></path><path d="M 637.6260709617204,205.1094953959207 A 200.5349448181897,200.5349448181897 0 0,1 511.4822726595135,113.27866887132406" data-line="1.0" stroke-width="45.0"></path><path d="M 511.3416617735709,113.29186970065422 A 191.84454044178915,191.84454044178915 0 0,1 382.4515419509398,205.02647901972415" data-line="2.0" stroke-width="45.0"></path>
<path d="M 303.209,367.795 C 333.90452446443584,301.8128704832994 309.3240106100549,230.82543463565756 321.574,163.256" data-line="7.0" stroke-width="45.0"></path>
<path d="M 786.436,815.992 L 693.108,511.546" data-line="8.0" stroke-width="45.0"></path>
<path d="M 786.436,815.992 L 644.035,816.928" data-line="9.0" stroke-width="45.0"></path>
<path d="M 677.564,1020.0 L 644.035,816.928" data-line="10.0" stroke-width="45.0"></path>
<path d="M 677.564,1020.0 L 347.14,1019.909" data-line="11.0" stroke-width="45.0"></path>
<path d="M 380.164,817.055 L 347.14,1019.909" data-line="12.0" stroke-width="45.0"></path><path d="M 380.164,817.055 L 237.564,815.734" data-line="13.0" stroke-width="45.0"></path>
<path d="M 321.53705973191705,163.24958142099484 A 192.9347560568171,192.9347560568171 0 0,1 704.2651505185554,206.91263312526755" data-line="14.0" stroke-width="45.0"></path>
<path d="M 705.25,206.967 C 707.37203187712,259.6493161831556 696.0233444745951,319.00213932084523 719.764,366.633" data-line="15.0" stroke-width="45.0"></path>
<path d="M 693.152456696731,511.5349594303699 A 106.074848329232,106.074848329232 0 0,0 568.6349168714485,433.2428073268445" data-line="16.0" stroke-width="45.0"></path>
<path d="M 568.301,431.635 L 435.872,431.444" data-line="17.0" stroke-width="45.0"></path><path d="M 319.041,548.63 L 237.564,815.734" data-line="19.0" stroke-width="45.0"></path>
</g>
</svg>

<svg xmlns="http://www.w3.org/2000/svg" width="1024" height="1024" class="colorable-icon" overflow="visible" viewBox="240 -20 550 1064"><g fill="none" stroke="#000" stroke-linecap="round" stroke-linejoin="round" stroke-width="45"><path d="M637.221 206.842c3.456 5.665 4.389 19.326 3.932 41.92-2.422 21.245-5.889 36.999-10.543 50.9-6.029 12.755-13.66 24.906-23.816 36.88-11.222 10.831-23.267 19.811-35.53 26.948-13.526 5.952-27.876 10.338-45.401 13.446-15.355.81-31.196-.349-45.657-3.182-14.572-4.668-26.085-9.736-38.472-16.817-12.448-9.118-24.234-20.025-32.746-29.867-7.762-11.455-14.609-24.829-19.161-36.797-3.756-14.52-6.021-28.412-7.372-44.251l.156-40.182m53.261 225.604c-20.518 1.445-29.846 3.403-41.139 7.048-11.154 5.049-20.817 10.73-29.029 16.842-7.879 7.221-18.744 20.368-23.634 28.021-4.609 9.294-9.874 23.06-23.029 65.275m318.585-343.52a200.54 200.54 0 0 1-126.144-91.831m-.14.013a191.85 191.85 0 0 1-128.89 91.734m-79.243 162.769c30.696-65.982 6.115-136.97 18.365-204.539m464.862 652.736-93.328-304.446m93.328 304.446-142.401.936M677.564 1020l-33.529-203.072M677.564 1020l-330.424-.091m33.024-202.854-33.024 202.854m33.024-202.854-142.6-1.321"/><path d="M321.537 163.25a192.935 192.935 0 0 1 382.728 43.663m.985.054c2.122 52.682-9.227 112.035 14.514 159.666m-26.612 144.902a106.075 106.075 0 0 0-124.517-78.292m-.334-1.608-132.429-.191M319.041 548.63l-81.477 267.104"/></g></svg>
